X: 1
T: Hanley's
M: 4/4
L: 1/8
D: Journeyman, Gerry O'Connor
K: Ador
A3G E~G3|AGAB d3c|ABAG EGG2|gedB {d}BAGB|
A3G E~G3|AGAB d3c|ABAG EGG2|gedB {d}BAA2||
ageg {a}gedc|ABAG EGG2|agef ~g3a|gedB {d}BAA2|
ageg {a}gedc|ABAG E~G3|A/A/G AB d3e|gedB {d}BAGB||
